; generated by Slic3r 1.36.0-prusa3d on 2017-07-24 at 19:00:14

; 

; external perimeters extrusion width = 0.50mm
; perimeters extrusion width = 0.72mm
; infill extrusion width = 0.72mm
; solid infill extrusion width = 0.72mm
; top infill extrusion width = 0.72mm
; first layer extrusion width = 0.60mm

M107
M104 S200 ; set temperature
G28 ; home all axes
G1 Z5 F5000 ; lift nozzle

; Filament gcode

M109 S200 ; set temperature and wait for it to be reached
G21 ; set units to millimeters
G90 ; use absolute coordinates
M82 ; use absolute distances for extrusion
G92 E0
G1 Z0.350 F7800.000
G1 E-2.00000 F2400.00000
G92 E0
G1 X79.808 Y70.533 F7800.000
G1 E2.00000 F2400.00000
G1 F1800
G1 X81.036 Y69.480 E2.05005
G1 X82.483 Y68.757 E2.10009
G1 X84.068 Y68.405 E2.15033
G1 X115.306 Y68.375 E3.11689
G1 X116.520 Y68.488 E3.15461
G1 X117.693 Y68.822 E3.19233
G1 X118.779 Y69.362 E3.22986
G1 X119.753 Y70.095 E3.26758
G1 X120.573 Y70.989 E3.30511
G1 X121.218 Y72.023 E3.34283
G1 X121.664 Y73.158 E3.38055
G1 X121.893 Y74.356 E3.41828
G1 X121.924 Y125.095 E4.98823
G1 X121.712 Y126.667 E5.03730
G1 X121.129 Y128.149 E5.08657
G1 X120.688 Y128.855 E5.11233
G1 X120.162 Y129.500 E5.13808
G1 X119.554 Y130.078 E5.16404
G1 X118.884 Y130.572 E5.18980
G1 X118.157 Y130.977 E5.21555
G1 X117.379 Y131.290 E5.24151
G1 X116.573 Y131.501 E5.26727
G1 X115.748 Y131.610 E5.29302
G1 X84.547 Y131.623 E6.25841
G1 X83.002 Y131.404 E6.30670
G1 X81.551 Y130.829 E6.35499
G1 X80.830 Y130.377 E6.38133
G1 X80.172 Y129.836 E6.40768
G1 X79.589 Y129.215 E6.43403
G1 X79.091 Y128.525 E6.46037
G1 X78.685 Y127.776 E6.48672
G1 X78.378 Y126.982 E6.51307
G1 X78.177 Y126.155 E6.53941
G1 X78.082 Y125.302 E6.56596
G1 X78.076 Y74.905 E8.12532
G1 X78.288 Y73.333 E8.17439
G1 X78.871 Y71.851 E8.22365
G1 X79.764 Y70.594 E8.27138
G1 E6.27138 F2400.00000
G92 E0
G1 X113.700 Y123.400 F7800.000
G1 E2.00000 F2400.00000
G1 F1800
G1 X86.300 Y123.400 E2.84781
G1 X86.300 Y76.600 E4.29587
G1 X113.700 Y76.600 E5.14368
G1 X113.700 Y123.325 E6.58943
G1 X114.325 Y124.025 F7800.000
G1 F1800
G1 X85.675 Y124.025 E7.47590
G1 X85.675 Y75.975 E8.96264
G1 X114.325 Y75.975 E9.84911
G1 X114.325 Y123.950 E11.33353
G1 X114.950 Y124.650 F7800.000
G1 F1800
G1 X85.050 Y124.650 E12.25868
G1 X85.050 Y75.350 E13.78408
G1 X114.950 Y75.350 E14.70923
G1 X114.950 Y124.575 E16.23231
G1 X114.479 Y124.482 F7800.000
G1 E14.23231 F2400.00000
G92 E0
G1 X87.564 Y123.400 F7800.000
G1 E2.00000 F2400.00000
G1 F1800
G1 X86.581 Y122.417 E2.04309
G1 X86.581 Y121.532 E2.07050
G1 X88.168 Y123.119 E2.14004
G1 X89.053 Y123.119 E2.16745
G1 X86.581 Y120.647 E2.27575
G1 X86.581 Y119.762 E2.30317
G1 X89.938 Y123.119 E2.45024
G1 X90.823 Y123.119 E2.47765
G1 X86.581 Y118.877 E2.66348
G1 X86.581 Y117.993 E2.69090
G1 X91.707 Y123.119 E2.91550
G1 X92.592 Y123.119 E2.94291
G1 X86.581 Y117.108 E3.20628
G1 X86.581 Y116.223 E3.23369
G1 X93.477 Y123.119 E3.53583
G1 X94.362 Y123.119 E3.56324
G1 X86.581 Y115.338 E3.90414
G1 X86.581 Y114.453 E3.93156
G1 X95.247 Y123.119 E4.31123
G1 X96.132 Y123.119 E4.33864
G1 X86.581 Y113.568 E4.75707
G1 X86.581 Y112.684 E4.78449
G1 X97.016 Y123.119 E5.24169
G1 X97.901 Y123.119 E5.26910
G1 X86.581 Y111.799 E5.76507
G1 X86.581 Y110.914 E5.79248
G1 X98.786 Y123.119 E6.32722
G1 X99.671 Y123.119 E6.35463
G1 X86.581 Y110.029 E6.92813
G1 X86.581 Y109.144 E6.95554
G1 X100.556 Y123.119 E7.56781
G1 X101.441 Y123.119 E7.59523
G1 X86.581 Y108.259 E8.24626
G1 X86.581 Y107.375 E8.27367
G1 X102.325 Y123.119 E8.96348
G1 X103.210 Y123.119 E8.99089
G1 X86.581 Y106.490 E9.71946
G1 X86.581 Y105.605 E9.74687
G1 X104.095 Y123.119 E10.51420
G1 X104.980 Y123.119 E10.54162
G1 X86.581 Y104.720 E11.34772
G1 X86.581 Y103.835 E11.37513
G1 X105.865 Y123.119 E12.22000
G1 X106.750 Y123.119 E12.24741
G1 X86.581 Y102.950 E13.13105
G1 X86.581 Y102.066 E13.15846
G1 X107.634 Y123.119 E14.08086
G1 X108.519 Y123.119 E14.10827
G1 X86.581 Y101.181 E15.06944
G1 X86.581 Y100.296 E15.09685
G1 X109.404 Y123.119 E16.09679
G1 X110.289 Y123.119 E16.12420
G1 X86.581 Y99.411 E17.16290
G1 X86.581 Y98.526 E17.19031
G1 X111.174 Y123.119 E18.26778
G1 X112.059 Y123.119 E18.29519
G1 X86.581 Y97.641 E19.41143
G1 X86.581 Y96.757 E19.43884
G1 X112.943 Y123.119 E20.59384
G1 X113.419 Y123.119 E20.60858
G1 X113.419 Y122.710 E20.62125
G1 X86.581 Y95.872 E21.79709
G1 X86.581 Y94.987 E21.82451
G1 X113.419 Y121.825 E23.00035
G1 X113.419 Y120.940 E23.02776
G1 X86.581 Y94.102 E24.20360
G1 X86.581 Y93.217 E24.23101
G1 X113.419 Y120.055 E25.40685
G1 X113.419 Y119.171 E25.43426
G1 X86.581 Y92.332 E26.61010
G1 X86.581 Y91.448 E26.63751
G1 X113.419 Y118.286 E27.81335
G1 X113.419 Y117.401 E27.84077
G1 X86.581 Y90.563 E29.01661
G1 X86.581 Y89.678 E29.04402
G1 X113.419 Y116.516 E30.21986
G1 X113.419 Y115.631 E30.24727
G1 X86.581 Y88.793 E31.42311
G1 X86.581 Y87.908 E31.45052
G1 X113.419 Y114.746 E32.62636
G1 X113.419 Y113.862 E32.65377
G1 X86.581 Y87.023 E33.82961
G1 X86.581 Y86.139 E33.85703
G1 X113.419 Y112.977 E35.03287
G1 X113.419 Y112.092 E35.06028
G1 X86.581 Y85.254 E36.23612
G1 X86.581 Y84.369 E36.26353
G1 X113.419 Y111.207 E37.43937
G1 X113.419 Y110.322 E37.46678
G1 X86.581 Y83.484 E38.64262
G1 X86.581 Y82.599 E38.67003
G1 X113.419 Y109.437 E39.84587
G1 X113.419 Y108.553 E39.87329
G1 X86.581 Y81.714 E41.04913
G1 X86.581 Y80.830 E41.07654
G1 X113.419 Y107.668 E42.25238
G1 X113.419 Y106.783 E42.27979
G1 X86.581 Y79.945 E43.45563
G1 X86.581 Y79.060 E43.48304
G1 X113.419 Y105.898 E44.65888
G1 X113.419 Y105.013 E44.68630
G1 X86.581 Y78.175 E45.86214
G1 X86.581 Y77.290 E45.88955
G1 X113.419 Y104.128 E47.06539
G1 X113.419 Y103.244 E47.09280
G1 X87.056 Y76.881 E48.24781
G1 X87.941 Y76.881 E48.27522
G1 X113.419 Y102.359 E49.39146
G1 X113.419 Y101.474 E49.41887
G1 X88.826 Y76.881 E50.49634
G1 X89.711 Y76.881 E50.52376
G1 X113.419 Y100.589 E51.56246
G1 X113.419 Y99.704 E51.58987
G1 X90.596 Y76.881 E52.58982
G1 X91.481 Y76.881 E52.61723
G1 X113.419 Y98.819 E53.57840
G1 X113.419 Y97.935 E53.60581
G1 X92.365 Y76.881 E54.52822
G1 X93.250 Y76.881 E54.55563
G1 X113.419 Y97.050 E55.43927
G1 X113.419 Y96.165 E55.46668
G1 X94.135 Y76.881 E56.31156
G1 X95.020 Y76.881 E56.33897
G1 X113.419 Y95.280 E57.14508
G1 X113.419 Y94.395 E57.17249
G1 X95.905 Y76.881 E57.93983
G1 X96.790 Y76.881 E57.96724
G1 X113.419 Y93.510 E58.69582
G1 X113.419 Y92.626 E58.72323
G1 X97.674 Y76.881 E59.41304
G1 X98.559 Y76.881 E59.44045
G1 X113.419 Y91.741 E60.09149
G1 X113.419 Y90.856 E60.11890
G1 X99.444 Y76.881 E60.73117
G1 X100.329 Y76.881 E60.75859
G1 X113.419 Y89.971 E61.33209
G1 X113.419 Y89.086 E61.35951
G1 X101.214 Y76.881 E61.89425
G1 X102.099 Y76.881 E61.92166
G1 X113.419 Y88.201 E62.41763
G1 X113.419 Y87.317 E62.44505
G1 X102.983 Y76.881 E62.90225
G1 X103.868 Y76.881 E62.92967
G1 X113.419 Y86.432 E63.34811
G1 X113.419 Y85.547 E63.37552
G1 X104.753 Y76.881 E63.75519
G1 X105.638 Y76.881 E63.78261
G1 X113.419 Y84.662 E64.12351
G1 X113.419 Y83.777 E64.15093
G1 X106.523 Y76.881 E64.45307
G1 X107.408 Y76.881 E64.48048
G1 X113.419 Y82.892 E64.74385
G1 X113.419 Y82.008 E64.77127
G1 X108.292 Y76.881 E64.99587
G1 X109.177 Y76.881 E65.02329
G1 X113.419 Y81.123 E65.20913
G1 X113.419 Y80.238 E65.23654
G1 X110.062 Y76.881 E65.38362
G1 X110.947 Y76.881 E65.41103
G1 X113.419 Y79.353 E65.51934
G1 X113.419 Y78.468 E65.54675
G1 X111.832 Y76.881 E65.61629
G1 X112.717 Y76.881 E65.64370
G1 X113.700 Y77.865 E65.68680
G1 Z0.650 F7800.000
G1 X113.850 Y123.550 F7800.000
G1 F3600
G1 X86.150 Y123.550 E66.45627
G1 X86.150 Y76.450 E67.76462
G1 X113.850 Y76.450 E68.53409
G1 X113.850 Y123.475 E69.84037
G1 X114.505 Y124.205 F7800.000
G1 F3600
G1 X85.495 Y124.205 E70.64620
G1 X85.495 Y75.795 E71.99092
G1 X114.505 Y75.795 E72.79675
G1 X114.505 Y124.130 E74.13938
G1 X115.050 Y124.750 F7800.000
G1 F1800
G1 X84.950 Y124.750 E74.69588
G1 X84.950 Y75.250 E75.61105
G1 X115.050 Y75.250 E76.16755
G1 X115.050 Y124.675 E77.08133
G1 X114.579 Y124.583 F7800.000
G1 X112.511 Y123.550 F7800.000
G1 F1200
G1 X113.556 Y122.505 E77.12287
G1 X113.556 Y121.569 E77.14920
G1 X111.869 Y123.256 E77.21627
G1 X110.932 Y123.256 E77.24260
G1 X113.556 Y120.632 E77.34691
G1 X113.556 Y119.695 E77.37324
G1 X109.995 Y123.256 E77.51478
G1 X109.059 Y123.256 E77.54111
G1 X113.556 Y118.759 E77.71989
G1 X113.556 Y117.822 E77.74622
G1 X108.122 Y123.256 E77.96223
G1 X107.185 Y123.256 E77.98856
G1 X113.556 Y116.885 E78.24181
G1 X113.556 Y115.949 E78.26814
G1 X106.249 Y123.256 E78.55862
G1 X105.312 Y123.256 E78.58495
G1 X113.556 Y115.012 E78.91267
G1 X113.556 Y114.075 E78.93899
G1 X104.375 Y123.256 E79.30395
G1 X103.439 Y123.256 E79.33028
G1 X113.556 Y113.139 E79.73246
G1 X113.556 Y112.202 E79.75879
G1 X102.502 Y123.256 E80.19822
G1 X101.565 Y123.256 E80.22454
G1 X113.556 Y111.265 E80.70120
G1 X113.556 Y110.329 E80.72753
G1 X100.629 Y123.256 E81.24142
G1 X99.692 Y123.256 E81.26775
G1 X113.556 Y109.392 E81.81888
G1 X113.556 Y108.455 E81.84521
G1 X98.755 Y123.256 E82.43357
G1 X97.819 Y123.256 E82.45990
G1 X113.556 Y107.519 E83.08550
G1 X113.556 Y106.582 E83.11183
G1 X96.882 Y123.256 E83.77466
G1 X95.946 Y123.256 E83.80099
G1 X113.556 Y105.646 E84.50106
G1 X113.556 Y104.709 E84.52739
G1 X95.009 Y123.256 E85.26469
G1 X94.072 Y123.256 E85.29102
G1 X113.556 Y103.772 E86.06556
G1 X113.556 Y102.836 E86.09189
G1 X93.136 Y123.256 E86.90366
G1 X92.199 Y123.256 E86.92999
G1 X113.556 Y101.899 E87.77900
G1 X113.556 Y100.962 E87.80533
G1 X91.262 Y123.256 E88.69157
G1 X90.326 Y123.256 E88.71790
G1 X113.556 Y100.026 E89.64138
G1 X113.556 Y99.089 E89.66771
G1 X89.389 Y123.256 E90.62842
G1 X88.452 Y123.256 E90.65475
G1 X113.556 Y98.152 E91.65270
G1 X113.556 Y97.216 E91.67903
G1 X87.516 Y123.256 E92.71421
G1 X86.579 Y123.256 E92.74054
G1 X113.556 Y96.279 E93.81296
G1 X113.556 Y95.342 E93.83929
G1 X86.444 Y122.454 E94.91707
G1 X86.444 Y121.517 E94.94340
G1 X113.556 Y94.406 E96.02118
G1 X113.556 Y93.469 E96.04751
G1 X86.444 Y120.581 E97.12529
G1 X86.444 Y119.644 E97.15161
G1 X113.556 Y92.532 E98.22939
G1 X113.556 Y91.596 E98.25572
G1 X86.444 Y118.708 E99.33350
G1 X86.444 Y117.771 E99.35983
G1 X113.556 Y90.659 E100.43761
G1 X113.556 Y89.722 E100.46394
G1 X86.444 Y116.834 E101.54172
G1 X86.444 Y115.898 E101.56805
G1 X113.556 Y88.786 E102.64583
G1 X113.556 Y87.849 E102.67216
G1 X86.444 Y114.961 E103.74994
G1 X86.444 Y114.024 E103.77627
G1 X113.556 Y86.912 E104.85405
G1 X113.556 Y85.976 E104.88038
G1 X86.444 Y113.088 E105.95816
G1 X86.444 Y112.151 E105.98448
G1 X113.556 Y85.039 E107.06226
G1 X113.556 Y84.102 E107.08859
G1 X86.444 Y111.214 E108.16637
G1 X86.444 Y110.278 E108.19270
G1 X113.556 Y83.166 E109.27048
G1 X113.556 Y82.229 E109.29681
G1 X86.444 Y109.341 E110.37459
G1 X86.444 Y108.404 E110.40092
G1 X113.556 Y81.292 E111.47870
G1 X113.556 Y80.356 E111.50503
G1 X86.444 Y107.468 E112.58281
G1 X86.444 Y106.531 E112.60914
G1 X113.556 Y79.419 E113.68692
G1 X113.556 Y78.482 E113.71325
G1 X86.444 Y105.594 E114.79102
G1 X86.444 Y104.658 E114.81735
G1 X113.556 Y77.546 E115.89513
G1 X113.556 Y76.744 E115.91767
G1 X113.421 Y76.744 E115.92146
G1 X86.444 Y103.721 E116.99388
G1 X86.444 Y102.784 E117.02021
G1 X112.484 Y76.744 E118.05538
G1 X111.548 Y76.744 E118.08171
G1 X86.444 Y101.848 E119.07966
G1 X86.444 Y100.911 E119.10599
G1 X110.611 Y76.744 E120.06670
G1 X109.674 Y76.744 E120.09302
G1 X86.444 Y99.974 E121.01650
G1 X86.444 Y99.038 E121.04283
G1 X108.738 Y76.744 E121.92907
G1 X107.801 Y76.744 E121.95540
G1 X86.444 Y98.101 E122.80440
G1 X86.444 Y97.164 E122.83073
G1 X106.864 Y76.744 E123.64250
G1 X105.928 Y76.744 E123.66883
G1 X86.444 Y96.228 E124.44336
G1 X86.444 Y95.291 E124.46969
G1 X104.991 Y76.744 E125.20699
G1 X104.054 Y76.744 E125.23332
G1 X86.444 Y94.354 E125.93338
G1 X86.444 Y93.418 E125.95971
G1 X103.118 Y76.744 E126.62254
G1 X102.181 Y76.744 E126.64887
G1 X86.444 Y92.481 E127.27446
G1 X86.444 Y91.544 E127.30079
G1 X101.244 Y76.744 E127.88915
G1 X100.308 Y76.744 E127.91548
G1 X86.444 Y90.608 E128.46660
G1 X86.444 Y89.671 E128.49293
G1 X99.371 Y76.744 E129.00682
G1 X98.434 Y76.744 E129.03315
G1 X86.444 Y88.734 E129.50980
G1 X86.444 Y87.798 E129.53613
G1 X97.498 Y76.744 E129.97555
G1 X96.561 Y76.744 E130.00188
G1 X86.444 Y86.861 E130.40406
G1 X86.444 Y85.924 E130.43039
G1 X95.624 Y76.744 E130.79534
G1 X94.688 Y76.744 E130.82167
G1 X86.444 Y84.988 E131.14938
G1 X86.444 Y84.051 E131.17571
G1 X93.751 Y76.744 E131.46619
G1 X92.814 Y76.744 E131.49251
G1 X86.444 Y83.114 E131.74576
G1 X86.444 Y82.178 E131.77209
G1 X91.878 Y76.744 E131.98809
G1 X90.941 Y76.744 E132.01442
G1 X86.444 Y81.241 E132.19320
G1 X86.444 Y80.304 E132.21953
G1 X90.004 Y76.744 E132.36106
G1 X89.068 Y76.744 E132.38739
G1 X86.444 Y79.368 E132.49170
G1 X86.444 Y78.431 E132.51802
G1 X88.131 Y76.744 E132.58509
G1 X87.195 Y76.744 E132.61142
G1 X86.150 Y77.789 E132.65296
G1 Z0.950 F7800.000
G1 X113.850 Y123.550 F7800.000
G1 F3600
G1 X86.150 Y123.550 E133.42243
G1 X86.150 Y76.450 E134.73079
G1 X113.850 Y76.450 E135.50026
G1 X113.850 Y123.475 E136.80653
G1 X114.505 Y124.205 F7800.000
G1 F3600
G1 X85.495 Y124.205 E137.61236
G1 X85.495 Y75.795 E138.95708
G1 X114.505 Y75.795 E139.76291
G1 X114.505 Y124.130 E141.10555
G1 X115.050 Y124.750 F7800.000
G1 F1800
G1 X84.950 Y124.750 E141.66204
G1 X84.950 Y75.250 E142.57721
G1 X115.050 Y75.250 E143.13371
G1 X115.050 Y124.675 E144.04749
G1 X114.579 Y124.583 F7800.000
G1 X87.489 Y123.550 F7800.000
G1 F1200
G1 X86.444 Y122.505 E144.08903
G1 X86.444 Y121.569 E144.11536
G1 X88.131 Y123.256 E144.18243
G1 X89.068 Y123.256 E144.20876
G1 X86.444 Y120.632 E144.31306
G1 X86.444 Y119.696 E144.33939
G1 X90.004 Y123.256 E144.48093
G1 X90.941 Y123.256 E144.50726
G1 X86.444 Y118.759 E144.68603
G1 X86.444 Y117.822 E144.71236
G1 X91.878 Y123.256 E144.92837
G1 X92.814 Y123.256 E144.95470
G1 X86.444 Y116.886 E145.20794
G1 X86.444 Y115.949 E145.23427
G1 X93.751 Y123.256 E145.52475
G1 X94.688 Y123.256 E145.55108
G1 X86.444 Y115.012 E145.87879
G1 X86.444 Y114.076 E145.90512
G1 X95.624 Y123.256 E146.27006
G1 X96.561 Y123.256 E146.29639
G1 X86.444 Y113.139 E146.69858
G1 X86.444 Y112.202 E146.72491
G1 X97.498 Y123.256 E147.16432
G1 X98.434 Y123.256 E147.19065
G1 X86.444 Y111.266 E147.66731
G1 X86.444 Y110.329 E147.69364
G1 X99.371 Y123.256 E148.20752
G1 X100.308 Y123.256 E148.23385
G1 X86.444 Y109.392 E148.78498
G1 X86.444 Y108.456 E148.81131
G1 X101.244 Y123.256 E149.39966
G1 X102.181 Y123.256 E149.42599
G1 X86.444 Y107.519 E150.05159
G1 X86.444 Y106.582 E150.07791
G1 X103.118 Y123.256 E150.74074
G1 X104.054 Y123.256 E150.76707
G1 X86.444 Y105.646 E151.46714
G1 X86.444 Y104.709 E151.49346
G1 X104.991 Y123.256 E152.23076
G1 X105.928 Y123.256 E152.25709
G1 X86.444 Y103.772 E153.03163
G1 X86.444 Y102.836 E153.05796
G1 X106.864 Y123.256 E153.86972
G1 X107.801 Y123.256 E153.89605
G1 X86.444 Y101.899 E154.74506
G1 X86.444 Y100.962 E154.77139
G1 X108.738 Y123.256 E155.65762
G1 X109.674 Y123.256 E155.68395
G1 X86.444 Y100.026 E156.60743
G1 X86.444 Y99.089 E156.63376
G1 X110.611 Y123.256 E157.59446
G1 X111.548 Y123.256 E157.62079
G1 X86.444 Y98.152 E158.61874
G1 X86.444 Y97.216 E158.64507
G1 X112.484 Y123.256 E159.68025
G1 X113.421 Y123.256 E159.70658
G1 X86.444 Y96.279 E160.77899
G1 X86.444 Y95.342 E160.80532
G1 X113.556 Y122.454 E161.88310
G1 X113.556 Y121.518 E161.90943
G1 X86.444 Y94.406 E162.98721
G1 X86.444 Y93.469 E163.01354
G1 X113.556 Y120.581 E164.09132
G1 X113.556 Y119.644 E164.11764
G1 X86.444 Y92.532 E165.19542
G1 X86.444 Y91.596 E165.22175
G1 X113.556 Y118.708 E166.29953
G1 X113.556 Y117.771 E166.32586
G1 X86.444 Y90.659 E167.40364
G1 X86.444 Y89.722 E167.42997
G1 X113.556 Y116.834 E168.50775
G1 X113.556 Y115.898 E168.53408
G1 X86.444 Y88.786 E169.61186
G1 X86.444 Y87.849 E169.63819
G1 X113.556 Y114.961 E170.71597
G1 X113.556 Y114.024 E170.74230
G1 X86.444 Y86.912 E171.82008
G1 X86.444 Y85.976 E171.84641
G1 X113.556 Y113.088 E172.92419
G1 X113.556 Y112.151 E172.95052
G1 X86.444 Y85.039 E174.02830
G1 X86.444 Y84.102 E174.05462
G1 X113.556 Y111.214 E175.13240
G1 X113.556 Y110.278 E175.15873
G1 X86.444 Y83.166 E176.23651
G1 X86.444 Y82.229 E176.26284
G1 X113.556 Y109.341 E177.34062
G1 X113.556 Y108.404 E177.36695
